client/resources/iconsets/breeze/src/svg/16x16/icon_paperclip.svg

<svg xmlns="http://www.w3.org/2000/svg" width="16" height="16" viewBox="0 0 16 16">
 <path style="fill:#6d6d70"
       d="M 4.4570312 1 C 4.2035059 1 4 1.2035059 4 1.4570312 L 4 1.5429688 L 4 10.542969 C 4 10.796494 4.2035059 11 4.4570312 11 L 4.5429688 11 C 4.7964941 11 5 10.796494 5 10.542969 L 5 2 L 11 2 L 11 11.542969 L 11 12 A 2 2 0 0 1 9 14 A 2 2 0 0 1 7 12 L 7 11.5 L 7 11 L 7 4 L 9 4 L 9 11.5 C 9 11.777 9.223 12 9.5 12 C 9.777 12 10 11.777 10 11.5 L 10 3.5429688 L 10 3.4570312 C 10 3.2035059 9.7964941 3 9.5429688 3 L 6.4570312 3 C 6.2035059 3 6 3.2035059 6 3.4570312 L 6 3.5429688 L 6 11 L 6 11.5 L 6 12 A 3 3 0 0 0 9 15 A 3 3 0 0 0 12 12 L 12 11 L 12 1.5429688 L 12 1.4570312 C 12 1.2035059 11.796494 1 11.542969 1 L 4.4570312 1 z "
       />
</svg>

<svg xmlns="http://www.w3.org/2000/svg" width="16" height="16"><path d="M4.457 1C4.204 1 4 1.204 4 1.457v.086 9c0 .254.204.457.457.457h.086c.254 0 .457-.204.457-.457V2h6v9.543V12a2 2 0 1 1-4 0v-.5-.5-7h2v7.5a.5.5 0 1 0 1 0V3.543v-.086C10 3.204 9.796 3 9.543 3H6.457C6.204 3 6 3.204 6 3.457v.086V11v.5.5a3 3 0 1 0 6 0v-1-9.457-.086c0-.254-.204-.457-.457-.457H4.457z" fill="#6d6d70"/></svg>
